X:1
T:Title
%%score { ( 1 3 4 ) | ( 2 5 ) }
L:1/8
M:4/4
K:Bb
V:1 treble nm="Grand Piano"
V:3 treble 
V:4 treble 
V:2 bass 
V:5 bass 
V:1
 z4 z2[Q:1/4=106] [B,D]>[CE] | [DF]2 [B,D]2 [DF]2 [DB]2 | [Fd]6 [FB]>[FB] | c2 B2 F2 D2 | %4
[M:3/4] C6 |[M:1/4] D>[K:bass][F,CE] |[M:4/4] [B,DF]2 [F,B,D]2[K:treble] [B,DF]2 [DB]>[FA] | %7
 [B,EG]6 [Ge]>[Ge] | d2 B2 A2 c2 |[M:3/4] [B,DB]6 |[M:1/4] F>F | %11
[M:4/4] [DB]6[K:bass][K:treble] z2 |[M:3/4] [EA]6 |[M:1/4] A>B |[M:4/4] c6 z2 | [Fd]6 z2 | %16
 d2 cc F2 cc | B2 c2 d2 [DF]>[DF] | G2 B2 B2 c2 |[M:3/4] B6 |] %20
V:2
 z4 z2 [B,,F,]>[B,,F,] | [B,,B,]2 [B,,F,]2 [B,,B,]2 [B,,B,]2 | [B,,B,]6 [D,B,]>[D,B,] | %3
 [E,G,E]2 [G,B,E]2 [B,D]2 [B,,F,B,]2 |[M:3/4] [F,A,]6 |[M:1/4] [B,,F,B,]>B,, | %6
[M:4/4] B,,2 B,,2 B,,2 B,,>D, | E,6 [E,B,]>[E,B,] | [F,B,F]2 [F,DF]2 [F,CE]2 [F,A,E]2 | %9
[M:3/4] B,,6 |[M:1/4] F,>F, |[M:4/4] [B,,F,]>B,, B,,>B,, z z/ F/ [B,,B,]>[B,,B,] | %12
[M:3/4] [F,C]>F, F,>F, F,2 |[M:1/4] [F,CE]>[F,G,D] | %14
[M:4/4] E->[F,E-] [F,E-]>[F,E-] E>E [F,G,D]>[F,A,E] | [B,,B,]>B,, D,>F, z2 [B,F]2 | %16
 [F,A,E]2 [F,A,E][F,A,E] [F,CE]2 [F,A,E][F,A,E] | [G,B,D]2 [F,A,E]2 [B,F]2 [B,,B,]>[B,,B,] | %18
 [E,B,E]2 [E,G,E]2 [F,D]2 [F,A,E]2 |[M:3/4] z2 G,2 F,2 |] %20
V:3
 x8 | x8 | x8 | x8 |[M:3/4] x6 |[M:1/4] x3/2[K:bass] x/ |[M:4/4] z4[K:treble] z2 B,2 | x8 | x8 | %9
[M:3/4] x6 |[M:1/4] x2 |[M:4/4] z z/[K:bass] F,/ F,>F, z z/[K:treble] d/ [Ec]>[DB] | %12
[M:3/4] z z/ C/ C>C C2 |[M:1/4] x2 |[M:4/4] z z/ A,/ A,>A, z z/ F/ B>c | z z/ B,/ B,>B, B,2 d2 | %16
 x8 | x8 | x8 |[M:3/4] [B,D]2 E2 D2 |] %20
V:4
 x8 | x8 | x8 | x8 |[M:3/4] x6 |[M:1/4] x3/2[K:bass] x/ |[M:4/4] x4[K:treble] x4 | x8 | x8 | %9
[M:3/4] x6 |[M:1/4] x2 |[M:4/4] z4[K:bass] B,2[K:treble] z2 |[M:3/4] x6 |[M:1/4] x2 | %14
[M:4/4] z4 A,2 z2 | x8 | x8 | x8 | x8 |[M:3/4] x6 |] %20
V:5
 x8 | x8 | x8 | x8 |[M:3/4] x6 |[M:1/4] x2 |[M:4/4] x8 | x8 | x8 |[M:3/4] x6 |[M:1/4] x2 | %11
[M:4/4] z4 B,,2 z2 |[M:3/4] x6 |[M:1/4] x2 |[M:4/4] [F,A,]2 z2 F,2 z2 | x8 | x8 | x8 | x8 | %19
[M:3/4] B,,6 |] %20

